packages/core/src/svgs/tokens/mono/MND.svg

<svg width="24" height="24" viewBox="0 0 24 24" fill="none" xmlns="http://www.w3.org/2000/svg">
<path d="M15.5935 2.92003C15.7155 2.92003 15.8326 2.87156 15.9189 2.78529C16.0051 2.69902 16.0535 2.58202 16.0535 2.46002C16.0535 2.33801 16.0051 2.22099 15.9189 2.13472C15.8326 2.04845 15.7155 2 15.5935 2C15.4715 2 15.3546 2.04845 15.2683 2.13472C15.182 2.22099 15.1335 2.33801 15.1335 2.46002C15.1335 2.58202 15.182 2.69902 15.2683 2.78529C15.3546 2.87156 15.4715 2.92003 15.5935 2.92003ZM9.29619 5.85727C8.78589 5.38139 8.12743 5.09552 7.43133 5.04767C6.73521 4.9998 6.04382 5.19285 5.47319 5.59441C5.32461 5.70298 5.19318 5.84014 5.09032 6.01157C5.0846 6.023 5.07318 6.023 5.06175 6.01157C5.05032 6.01157 5.0446 5.99442 5.05604 5.98299C5.22747 5.70298 5.42748 5.46298 5.6732 5.25154C6.91497 4.13977 8.49547 3.47939 10.1591 3.37718C10.2391 3.37718 10.2848 3.40576 10.2848 3.48576C10.3076 4.89153 10.2848 6.22871 10.2848 7.49733C10.2848 7.62876 10.302 7.76591 10.2791 7.92021C10.2505 8.08022 10.2333 8.0745 10.222 7.92021C10.1969 7.13916 9.86425 6.39965 9.29619 5.86299V5.85727ZM19.2966 10.526C19.4279 10.2459 19.5251 10.0289 19.8451 9.8974C20.0737 9.80033 20.3537 10.0174 20.4737 10.1946C20.6909 10.4974 20.5194 10.9374 20.188 11.0689C19.9594 11.1546 19.7309 11.1032 19.5194 10.926C19.4966 10.9074 19.4693 10.895 19.4403 10.89C19.4113 10.885 19.3814 10.8876 19.3537 10.8974C18.6108 11.126 17.8736 11.366 17.1365 11.6117C16.9878 11.6689 16.8508 11.726 16.7193 11.8117C16.6884 11.8303 16.6642 11.8584 16.6508 11.8917C16.525 12.2118 16.365 12.4632 15.9707 12.406C15.3765 12.3032 15.4222 11.6804 15.6622 11.2632C15.6738 11.2446 15.6813 11.2238 15.6842 11.2021C15.6871 11.1805 15.6855 11.1584 15.6793 11.1374L15.0222 8.8631C15.0136 8.82943 14.9964 8.79855 14.9724 8.77349C14.9484 8.74845 14.9183 8.73009 14.885 8.72024C14.3821 8.58309 14.0449 8.1145 14.4792 7.65733C14.6222 7.49733 14.5992 7.28019 14.565 7.08589L14.1877 4.85723C14.1767 4.76817 14.1408 4.684 14.0841 4.61431C14.0276 4.54461 13.9527 4.49217 13.8677 4.46294C13.8328 4.44939 13.8029 4.42546 13.7821 4.39436C13.2964 3.68006 14.1992 2.95431 14.7764 3.73149C14.805 3.76577 14.8335 3.78862 14.8735 3.78862C15.1935 3.86863 16.2735 4.11436 16.5365 3.82292C17.0908 3.2229 17.9651 4.02293 17.4108 4.62295C17.0336 5.02296 16.6108 4.78295 16.3708 4.37722C16.3569 4.35426 16.3377 4.33498 16.3149 4.32104C16.292 4.30711 16.2661 4.29893 16.2393 4.29721C15.8107 4.25721 15.2392 4.08007 14.8564 4.22864C14.5592 4.34294 14.4564 4.61723 14.5307 5.05154C14.6507 5.73727 14.7592 6.40586 14.8564 7.05731C14.9135 7.44019 15.0735 7.45733 15.3135 7.68591C15.7822 8.09735 15.1992 8.38308 15.325 8.8231L15.9193 10.9204C15.9593 11.0517 16.0335 11.1489 16.1478 11.206C16.4108 11.3317 16.5765 11.4747 16.8793 11.3775C17.6279 11.1374 18.4051 10.8804 19.2051 10.6117C19.2257 10.605 19.2445 10.5938 19.2603 10.579C19.2761 10.5642 19.2885 10.5461 19.2966 10.526ZM19.1709 5.54298C19.2409 5.55375 19.3125 5.54926 19.3805 5.52979C19.4486 5.51034 19.5118 5.47638 19.5655 5.43024C19.6193 5.38409 19.6625 5.32688 19.6921 5.2625C19.7217 5.19811 19.737 5.1281 19.737 5.05724C19.737 4.98639 19.7217 4.91637 19.6921 4.85199C19.6625 4.78761 19.6193 4.73039 19.5655 4.68426C19.5118 4.63812 19.4486 4.60416 19.3805 4.58469C19.3125 4.56524 19.2409 4.56074 19.1709 4.57152C19.0548 4.58936 18.949 4.64816 18.8726 4.73724C18.7962 4.82634 18.7542 4.93985 18.7542 5.05724C18.7542 5.17463 18.7962 5.28814 18.8726 5.37724C18.949 5.46634 19.0548 5.52513 19.1709 5.54298Z" fill="white"/>
<path d="M16.4973 6.61169L16.5658 6.79455C16.9144 7.48029 17.2516 8.13745 17.5831 8.76605C17.7831 9.14321 18.1544 8.85748 18.3831 9.31468C18.4574 9.46895 18.4574 9.62322 18.3831 9.77176C18.2116 10.1318 17.7773 10.2747 17.4458 10.0347C17.1373 9.80603 17.2686 9.40041 17.343 9.0804C17.3537 9.03647 17.3497 8.99028 17.3316 8.94891C16.9604 8.17589 16.5601 7.41722 16.1315 6.67454C16.1201 6.65461 16.1033 6.63821 16.0831 6.62713C16.063 6.61605 16.0402 6.6107 16.0173 6.61169C15.3372 6.60026 15.1372 5.70308 15.8458 5.45735C16.2743 5.30878 16.6516 5.68594 16.5886 6.09738C16.5818 6.12252 16.5837 6.14926 16.5941 6.17317C16.6045 6.19707 16.6228 6.2167 16.6458 6.22881L17.6916 6.86883C17.7316 6.8917 17.7716 6.89741 17.8116 6.88598C17.8916 6.87455 17.9659 6.8517 18.0401 6.82883C18.3601 6.70312 18.6802 6.83455 18.7944 7.14884C19.0802 7.97174 17.7431 8.38889 17.6516 7.29742C17.6508 7.27983 17.6463 7.2626 17.6384 7.24684C17.6305 7.2311 17.6195 7.21718 17.6059 7.20599C17.263 6.94313 16.9144 6.73169 16.5544 6.56597C16.4973 6.53739 16.4858 6.55454 16.4973 6.61169ZM19.9887 8.60032C20.0813 8.60032 20.1699 8.5636 20.2353 8.49822C20.3006 8.43286 20.3374 8.34419 20.3374 8.25175C20.3374 8.15929 20.3006 8.07063 20.2353 8.00526C20.1699 7.93988 20.0813 7.90316 19.9887 7.90316C19.8963 7.90316 19.8077 7.93988 19.7423 8.00526C19.677 8.07063 19.6402 8.15929 19.6402 8.25175C19.6402 8.34419 19.677 8.43286 19.7423 8.49822C19.8077 8.5636 19.8963 8.60032 19.9887 8.60032ZM9.22841 19.2693L9.31412 19.2293C10.0248 18.8504 10.6772 18.3711 11.2514 17.8063L11.9371 17.132C11.9942 17.075 12.0285 17.0863 12.0514 17.1663C12.1657 17.7892 12.3142 18.4235 12.2799 19.0521C12.2457 19.9664 12.0171 20.8294 11.5942 21.6465C11.5484 21.7437 11.4856 21.8351 11.4228 21.9209C11.3256 22.0409 11.2914 22.0237 11.3199 21.8751C11.5027 20.9575 11.4235 20.0068 11.0914 19.1321C11.0342 19.0008 10.9484 18.9721 10.8284 19.0521C9.98198 19.6508 9.06691 20.1457 8.10265 20.5264C7.51406 20.7379 6.75403 20.7894 6.48546 20.0751C6.3885 19.8233 6.33815 19.5561 6.33688 19.2864C6.33709 19.2221 6.32223 19.1585 6.29344 19.101C6.26467 19.0434 6.22277 18.9934 6.17116 18.955L5.79972 18.6807C5.76631 18.6554 5.73829 18.6238 5.71727 18.5875C5.69627 18.5514 5.6827 18.5114 5.67738 18.4698C5.67206 18.4283 5.67508 18.3862 5.68627 18.3458C5.69747 18.3055 5.71661 18.2678 5.74257 18.235L5.85114 18.1035C5.88543 18.0578 5.874 18.0407 5.81686 18.0463C5.58828 18.0693 5.37685 18.0178 5.18255 17.8978C5.16891 17.8908 5.15683 17.8811 5.14701 17.8694C5.13719 17.8575 5.12984 17.8439 5.1254 17.8292C5.07397 17.6578 5.10254 17.4863 5.20541 17.3092C5.25684 17.2235 5.2454 17.1263 5.17684 17.0235C5.15732 16.996 5.13167 16.9734 5.10192 16.9575C5.07216 16.9416 5.03912 16.9329 5.00539 16.932C4.46252 16.9207 3.95965 17.0178 3.70249 16.412C3.64535 16.2863 3.55392 16.1835 3.62249 16.0349L4.26823 14.6919C4.38252 14.4519 4.49682 14.1719 4.34824 13.9262C3.89107 13.1319 3.60534 12.3261 3.49678 11.5033C3.40732 10.6829 3.40732 9.8551 3.49678 9.03463H3.52534L3.53678 9.05747C3.60534 9.77176 3.66249 10.5261 3.97108 11.1375C3.97516 11.1457 3.98078 11.1529 3.98765 11.1587C3.99452 11.1646 4.00248 11.169 4.01108 11.1718C4.02087 11.1742 4.03105 11.1745 4.04093 11.1725C4.0508 11.1705 4.06012 11.1663 4.06823 11.1605C4.46671 10.9067 4.91483 10.7411 5.38255 10.6747C5.87972 10.6005 7.01119 10.6575 7.22834 11.2118C7.23307 11.2251 7.23445 11.2394 7.23231 11.2534C7.23019 11.2674 7.22463 11.2806 7.21615 11.2919C7.20766 11.3033 7.1965 11.3123 7.18367 11.3183C7.17084 11.3242 7.15674 11.327 7.14262 11.3261C6.28544 11.2461 4.76539 11.4348 4.38252 12.3433C4.31394 12.4976 4.35966 12.5376 4.50824 12.4576C4.91826 12.202 5.3861 12.0538 5.86852 12.0269C6.35095 11.9998 6.83238 12.095 7.26834 12.3033C7.30834 12.3261 7.31405 12.3491 7.28548 12.3891C6.83106 12.9336 6.54968 13.6015 6.47738 14.3071C6.4051 15.0126 6.54521 15.7237 6.87975 16.3492C7.06833 16.7149 7.32548 16.9778 7.65121 17.1435C7.69121 17.1607 7.73121 17.1663 7.77121 17.1435C7.94265 17.0863 8.10265 16.9892 8.23408 16.8577C8.97471 16.152 9.45757 15.2185 9.60557 14.2062C9.6101 14.1994 9.61597 14.1935 9.6229 14.1893C9.62984 14.1849 9.63771 14.1821 9.64584 14.1809C9.65397 14.1798 9.66224 14.1805 9.67011 14.1829C9.67784 14.1853 9.68517 14.1894 9.69131 14.1949C10.0799 14.4919 10.4799 14.7149 10.8914 14.8634C10.9256 14.8806 10.9484 14.9034 10.9542 14.9377C10.9828 15.0862 10.9542 15.212 11.0171 15.3606C11.0971 15.5434 11.2456 15.6977 11.4399 15.8062C11.471 15.8222 11.4948 15.8494 11.5064 15.8824C11.5182 15.9153 11.5168 15.9514 11.5028 15.9834C10.9772 17.2082 10.1891 18.3026 9.19412 19.1893C9.11411 19.2578 9.13126 19.2864 9.22841 19.2693ZM5.0454 16.1835C5.02874 16.1621 5.01879 16.1363 5.01683 16.1092L4.98826 14.3949C4.98826 14.2862 4.97111 14.2806 4.93111 14.3777C4.82253 14.6406 4.73682 14.9091 4.66825 15.1777C4.58825 15.492 4.58253 15.8234 4.47967 16.132C4.47523 16.1432 4.47319 16.1553 4.47371 16.1673C4.47423 16.1793 4.4773 16.1912 4.48268 16.202C4.48808 16.2128 4.49568 16.2223 4.50502 16.2299C4.51434 16.2376 4.52518 16.2432 4.53682 16.2463L5.02826 16.3492C5.03711 16.3516 5.04642 16.3517 5.05537 16.3497C5.06432 16.3477 5.07266 16.3436 5.07969 16.3377C5.08753 16.3307 5.09329 16.3217 5.0963 16.3116C5.09933 16.3015 5.09952 16.2908 5.09684 16.2807C5.08462 16.2464 5.06513 16.2152 5.03969 16.1892L5.0454 16.1835Z" fill="white"/>
<path d="M12.0279 15.5608C12.6337 15.6864 13.028 15.435 13.0224 14.8063C13.0224 14.7607 13.0394 14.7263 13.0794 14.7035C13.1537 14.6578 13.2337 14.635 13.3195 14.6121C13.3824 14.595 13.4452 14.5835 13.508 14.555C14.0448 14.3454 14.5104 13.9864 14.8496 13.5206C15.1889 13.0548 15.3877 12.5015 15.4225 11.9262C15.4567 11.4692 15.3481 10.9662 15.091 10.4062C14.9767 10.1376 14.7595 9.8919 14.5538 9.64616C14.4395 9.51482 14.3195 9.37762 14.2167 9.24055C13.8937 8.81357 13.7137 8.29562 13.7024 7.76044C13.7137 6.24609 13.7137 2.89169 13.7137 2.89169C13.7137 2.61168 13.1995 2.54881 12.9709 2.53739C12.4166 2.50311 11.5423 2.45738 10.9994 2.66311C10.9627 2.67629 10.9308 2.70018 10.9079 2.73169L10.9023 2.74882C10.8794 2.7774 10.8566 2.80597 10.8566 2.84026V7.28042C10.8566 7.83472 10.8336 8.37759 10.5708 8.90904C10.4508 9.16614 10.2565 9.37762 10.0736 9.59483C9.92507 9.75483 9.78786 9.91484 9.67359 10.0976C9.3023 10.6215 9.11592 11.2541 9.14385 11.8956C9.17179 12.5371 9.41252 13.1511 9.82786 13.6407C10.2483 14.1519 10.8175 14.5195 11.4566 14.6921C11.5023 14.7035 11.5309 14.7378 11.5423 14.7835C11.5594 14.8407 11.5651 14.8978 11.5651 14.955C11.5651 15.2464 11.7023 15.4921 12.0223 15.5608H12.0279ZM13.2109 7.42328C13.2452 7.42328 13.2795 7.43471 13.308 7.45756C13.3824 7.53186 13.3767 7.60043 13.2909 7.669C13.2711 7.68384 13.2471 7.69186 13.2224 7.69186H11.6566C11.6395 7.69129 11.6226 7.69521 11.6075 7.70324C11.5925 7.71126 11.5798 7.72311 11.5709 7.73757C11.5137 7.85187 11.4623 7.96615 11.4394 8.08044C11.3715 8.38822 11.2259 8.67349 11.0166 8.90904C10.9479 8.98904 10.9251 8.98334 10.9594 8.88048C11.1194 8.4576 11.2051 8.00616 11.2279 7.51471C11.2279 7.48614 11.2451 7.46328 11.2623 7.44614C11.2824 7.42755 11.3091 7.41735 11.3366 7.41756H13.2167L13.2109 7.42328ZM13.7937 10.2519C13.9891 10.4411 14.1443 10.6675 14.2504 10.9179C14.3564 11.1682 14.4111 11.4373 14.4111 11.7092C14.4111 11.981 14.3564 12.2501 14.2504 12.5004C14.1443 12.7508 13.9891 12.9772 13.7937 13.1663C13.5437 13.408 13.2393 13.586 12.9061 13.6855C12.5729 13.785 12.2207 13.8031 11.8791 13.738C11.5375 13.6731 11.2164 13.5271 10.9431 13.3123C10.6696 13.0973 10.4519 12.82 10.3079 12.5035C10.1449 12.1256 10.1024 11.7065 10.1863 11.3037C10.2701 10.9007 10.4763 10.5334 10.7766 10.2519C11.1812 9.86177 11.723 9.64629 12.2852 9.65189C12.8566 9.65189 13.3937 9.8691 13.7937 10.2519ZM12.1594 15.1664C12.1423 15.2236 12.1137 15.2578 12.0794 15.2636C12.0623 15.2693 12.0394 15.2636 12.0223 15.2578C11.9999 15.2448 11.9805 15.2273 11.9651 15.2064C11.9426 15.1825 11.9234 15.1556 11.9079 15.1264C11.8953 15.095 11.8857 15.0625 11.8794 15.0293C11.8618 14.9639 11.8598 14.8954 11.8737 14.8293C11.8851 14.7721 11.9194 14.7378 11.9537 14.7321L12.0109 14.7378C12.0337 14.7493 12.0509 14.7663 12.0679 14.7893C12.0909 14.8121 12.1079 14.835 12.1251 14.8693L12.1537 14.9663C12.1709 15.0408 12.1709 15.1093 12.1537 15.1664H12.1594ZM14.0852 11.7149C14.0852 12.6692 13.2795 13.4463 12.2852 13.4463C11.8178 13.454 11.3665 13.276 11.03 12.9515C10.6938 12.6269 10.4998 12.1823 10.4908 11.7149C10.4908 10.7549 11.2908 9.97764 12.2852 9.97764C12.5176 9.97311 12.7485 10.0144 12.9648 10.0994C13.1812 10.1843 13.3787 10.3111 13.5459 10.4725C13.7131 10.6339 13.8468 10.8267 13.9393 11.0399C14.0319 11.2532 14.0815 11.4825 14.0852 11.7149Z" fill="white"/>
<path d="M18.0514 13.5605C17.9257 13.8861 17.8114 14.2519 17.7085 14.6633C17.6629 14.8348 17.7657 14.9606 17.8457 15.1034C17.9599 15.2919 17.9314 15.5491 17.8229 15.7434C17.6685 16.0177 17.2514 16.0062 17.0114 15.8749C16.8684 15.8006 16.7142 15.8291 16.5771 15.8977L14.1083 17.1777C13.977 17.2462 13.9598 17.4406 13.9483 17.5777C13.9141 17.892 13.4912 18.1092 13.1998 18.0007C12.754 17.8292 12.5769 17.2806 12.954 16.9434C13.1827 16.7434 13.5483 16.8006 13.7998 16.892C13.8406 16.907 13.8841 16.9132 13.9274 16.9102C13.9707 16.9073 14.0129 16.8953 14.0513 16.8749L16.4914 15.5948C16.6742 15.4976 16.7542 15.2576 16.8228 15.0691C16.8367 15.028 16.8602 14.9907 16.8914 14.9606C17.0799 14.7834 17.3084 14.8748 17.4229 14.5605C17.5599 14.1605 17.6629 13.7891 17.7142 13.4576C17.7194 13.4258 17.7161 13.3934 17.7046 13.3634C17.6931 13.3333 17.6741 13.3069 17.6491 13.2866C17.6242 13.2664 17.5945 13.253 17.5627 13.2478C17.531 13.2428 17.4985 13.2461 17.4685 13.2576C16.9714 13.4518 16.4628 13.6633 15.9484 13.8861C15.7884 13.9605 15.6284 14.0405 15.5428 14.2119C15.297 14.6861 14.8913 14.6976 14.6341 14.2233C14.6194 14.1931 14.6118 14.1599 14.6118 14.1261C14.6118 14.0925 14.6194 14.0593 14.6341 14.0291C14.7084 13.8519 14.8398 13.7318 15.0228 13.669C15.0558 13.6568 15.0924 13.6568 15.1256 13.669C15.3198 13.7433 15.5084 13.7433 15.6971 13.669C16.1541 13.4861 16.6399 13.2748 17.1714 13.0405C17.3542 12.9605 17.4057 12.7547 17.4571 12.5833C17.5314 12.3318 17.7429 12.1775 18.0057 12.1833C18.36 12.1947 18.5885 12.3718 18.6857 12.7261C18.7772 13.069 18.4285 13.3376 18.1485 13.4576C18.1259 13.4668 18.1055 13.4808 18.0889 13.4985C18.0721 13.5162 18.0593 13.5374 18.0514 13.5605ZM19.16 14.4291C19.2404 14.4291 19.3173 14.3972 19.3741 14.3404C19.4309 14.2836 19.4629 14.2065 19.4629 14.1261C19.4629 14.0459 19.4309 13.9688 19.3741 13.912C19.3173 13.8552 19.2404 13.8233 19.16 13.8233C19.0797 13.8233 19.0026 13.8552 18.9458 13.912C18.889 13.9688 18.8572 14.0459 18.8572 14.1261C18.8572 14.2065 18.889 14.2836 18.9458 14.3404C19.0026 14.3972 19.0797 14.4291 19.16 14.4291ZM15.9541 18.3149C16.0981 18.3149 16.2363 18.2577 16.338 18.1559C16.4399 18.0541 16.4971 17.916 16.4971 17.772C16.4971 17.628 16.4399 17.49 16.338 17.3881C16.2363 17.2864 16.0981 17.2292 15.9541 17.2292C15.8101 17.2292 15.6721 17.2864 15.5703 17.3881C15.4685 17.49 15.4113 17.628 15.4113 17.772C15.4113 17.916 15.4685 18.0541 15.5703 18.1559C15.6721 18.2577 15.8101 18.3149 15.9541 18.3149Z" fill="white"/>
</svg>

<svg xmlns="http://www.w3.org/2000/svg" width="24" height="24" fill="none" viewBox="0 0 24 24">
    <path fill="#fff" d="M15.594 2.92a.46.46 0 1 0 0-.92.46.46 0 0 0 0 .92M9.296 5.857a3.04 3.04 0 0 0-3.823-.263c-.148.109-.28.246-.383.418-.005.011-.017.011-.028 0-.012 0-.017-.018-.006-.029.171-.28.371-.52.617-.731a7.4 7.4 0 0 1 4.486-1.875c.08 0 .126.029.126.109.023 1.406 0 2.743 0 4.011 0 .132.017.269-.006.423-.028.16-.046.155-.057 0a2.96 2.96 0 0 0-.926-2.057zm10 4.669c.132-.28.23-.497.55-.629.228-.097.508.12.628.298.217.302.045.742-.286.874-.229.086-.457.034-.669-.143a.17.17 0 0 0-.165-.029q-1.113.345-2.217.715a2.2 2.2 0 0 0-.418.2.17.17 0 0 0-.068.08c-.126.32-.286.571-.68.514-.594-.103-.549-.726-.309-1.143a.15.15 0 0 0 .017-.126l-.657-2.274a.2.2 0 0 0-.137-.143c-.503-.137-.84-.606-.406-1.063.143-.16.12-.377.086-.571l-.377-2.229a.48.48 0 0 0-.32-.394.2.2 0 0 1-.086-.069c-.486-.714.417-1.44.994-.663.029.035.058.058.098.058.32.08 1.4.325 1.662.034.555-.6 1.43.2.875.8-.377.4-.8.16-1.04-.246a.17.17 0 0 0-.132-.08c-.428-.04-1-.217-1.383-.068-.297.114-.4.388-.325.823q.18 1.028.325 2.005c.058.383.217.4.457.629.47.411-.114.697.012 1.137l.594 2.097q.058.2.229.286c.263.126.428.269.731.172q1.125-.362 2.326-.766a.15.15 0 0 0 .092-.086m-.125-4.983a.49.49 0 1 0 .15-.97.49.49 0 0 0-.15.97"/>
    <path fill="#fff" d="m16.497 6.612.069.183q.521 1.027 1.017 1.971c.2.377.571.091.8.549a.5.5 0 0 1 0 .457c-.171.36-.606.503-.937.263-.309-.229-.177-.635-.103-.955a.2.2 0 0 0-.011-.131 34 34 0 0 0-1.2-2.274.13.13 0 0 0-.115-.063c-.68-.012-.88-.909-.171-1.155.428-.148.806.229.743.64a.115.115 0 0 0 .057.132l1.046.64a.15.15 0 0 0 .12.017c.08-.011.154-.034.228-.057.32-.126.64.006.754.32.286.823-1.05 1.24-1.142.148a.13.13 0 0 0-.046-.091 5.5 5.5 0 0 0-1.052-.64c-.057-.029-.068-.011-.057.046M19.99 8.6a.349.349 0 1 0 0-.697.349.349 0 0 0 0 .697M9.229 19.27l.085-.04a8.4 8.4 0 0 0 1.937-1.424l.686-.674c.057-.057.091-.046.114.034.115.623.263 1.258.229 1.886a6.1 6.1 0 0 1-.686 2.595 1.7 1.7 0 0 1-.171.274q-.146.179-.103-.046a5 5 0 0 0-.229-2.743q-.084-.198-.263-.08a13 13 0 0 1-2.725 1.474c-.589.212-1.349.263-1.618-.45a2.2 2.2 0 0 1-.148-.79.41.41 0 0 0-.166-.331l-.371-.274a.315.315 0 0 1-.057-.446l.108-.131q.051-.067-.034-.058a1 1 0 0 1-.634-.148.12.12 0 0 1-.058-.069q-.075-.255.08-.52.076-.13-.028-.286a.22.22 0 0 0-.172-.091c-.542-.011-1.045.086-1.303-.52-.057-.126-.148-.229-.08-.377l.646-1.343c.115-.24.229-.52.08-.766q-.687-1.19-.851-2.423c-.09-.82-.09-1.648 0-2.468h.028l.012.022c.068.715.125 1.47.434 2.08a.07.07 0 0 0 .04.035.07.07 0 0 0 .057-.011c.399-.254.847-.42 1.315-.486.497-.075 1.628-.018 1.845.537a.086.086 0 0 1-.085.114c-.858-.08-2.378.109-2.76 1.017-.07.155-.023.195.125.115a2.87 2.87 0 0 1 2.76-.155c.04.023.046.046.017.086a3.56 3.56 0 0 0-.405 3.96q.282.548.771.794c.04.018.08.023.12 0 .172-.057.332-.154.463-.285a4.58 4.58 0 0 0 1.372-2.652.06.06 0 0 1 .04-.025.06.06 0 0 1 .045.014q.583.446 1.2.668c.035.018.057.04.063.075.029.148 0 .274.063.423.08.182.229.337.423.445a.137.137 0 0 1 .063.177 9.1 9.1 0 0 1-2.309 3.206c-.08.069-.063.097.034.08m-4.184-3.087a.14.14 0 0 1-.028-.074l-.029-1.714q.002-.163-.057-.017a6 6 0 0 0-.263.8c-.08.314-.085.645-.188.954a.086.086 0 0 0 .057.114l.491.103a.06.06 0 0 0 .052-.011.06.06 0 0 0 .017-.057.3.3 0 0 0-.057-.092zm6.984-.622c.606.126 1-.125.994-.754q-.002-.068.057-.102a1 1 0 0 1 .24-.092c.063-.017.126-.028.189-.057a3.02 3.02 0 0 0 1.915-2.629c.034-.457-.075-.96-.332-1.52-.114-.268-.332-.514-.537-.76-.114-.131-.235-.268-.337-.405a2.54 2.54 0 0 1-.515-1.48c.012-1.515.012-4.87.012-4.87 0-.28-.514-.342-.743-.354-.554-.034-1.429-.08-1.972.126a.2.2 0 0 0-.091.069l-.006.017c-.023.028-.045.057-.045.091v4.44c0 .555-.023 1.098-.286 1.629-.12.257-.314.469-.497.686-.149.16-.286.32-.4.503a2.89 2.89 0 0 0 .154 3.543c.42.51.99.879 1.629 1.051.045.011.074.046.085.091a.6.6 0 0 1 .023.172c0 .291.137.537.457.606zm1.183-8.137q.053 0 .097.035.111.11-.017.211a.1.1 0 0 1-.069.023h-1.565a.1.1 0 0 0-.086.046 1.4 1.4 0 0 0-.132.342 1.85 1.85 0 0 1-.422.829c-.07.08-.092.074-.058-.029.16-.422.246-.874.269-1.365 0-.029.017-.052.034-.069a.1.1 0 0 1 .075-.028h1.88zm.583 2.829a2.03 2.03 0 0 1 0 2.914 2.17 2.17 0 0 1-3.486-.662 2 2 0 0 1 .469-2.252 2.14 2.14 0 0 1 1.508-.6c.572 0 1.109.217 1.509.6m-1.635 4.914q-.027.088-.08.098a.1.1 0 0 1-.057-.006.2.2 0 0 1-.057-.052.4.4 0 0 1-.057-.08.5.5 0 0 1-.029-.097.4.4 0 0 1-.005-.2c.011-.057.045-.091.08-.097l.057.006a.2.2 0 0 1 .057.051c.023.023.04.046.057.08l.029.097a.4.4 0 0 1 0 .2zm1.926-3.451c0 .954-.806 1.731-1.8 1.731a1.766 1.766 0 0 1-1.794-1.731c0-.96.8-1.737 1.794-1.737a1.764 1.764 0 0 1 1.8 1.737"/>
    <path fill="#fff" d="M18.051 13.56q-.188.488-.342 1.103c-.046.172.057.298.137.44.114.189.085.446-.023.64-.154.275-.572.263-.812.132-.143-.074-.297-.046-.434.023l-2.469 1.28c-.131.068-.148.263-.16.4-.034.314-.457.531-.748.423-.446-.172-.623-.72-.246-1.058.229-.2.594-.142.846-.051a.3.3 0 0 0 .251-.017l2.44-1.28c.183-.097.263-.337.332-.526a.3.3 0 0 1 .068-.108c.189-.178.417-.086.532-.4.137-.4.24-.772.291-1.103a.18.18 0 0 0-.065-.171.18.18 0 0 0-.18-.03q-.748.293-1.52.63c-.16.073-.32.153-.406.325-.246.474-.652.486-.909.011a.22.22 0 0 1 0-.194.62.62 0 0 1 .389-.36.15.15 0 0 1 .103 0 .76.76 0 0 0 .571 0c.457-.183.943-.394 1.474-.629.183-.08.235-.285.286-.457a.54.54 0 0 1 .549-.4c.354.012.582.189.68.543.091.343-.258.612-.538.732a.17.17 0 0 0-.097.102m1.109.87a.303.303 0 1 0 0-.606.303.303 0 0 0 0 .605m-3.206 3.885a.543.543 0 1 0 0-1.086.543.543 0 0 0 0 1.086"/>
</svg>
